svg/u2623.svg

<svg viewBox="0 0 128 128" xmlns="http://www.w3.org/2000/svg">
  <g>
    <circle cx="64.46" cy="63.96" r="60" fill="#F2A600"/>
    <circle cx="60.56" cy="63.06" r="56.1" fill="#FFCC32"/>
    <path d="M24.46,29.66c4.5-7.1,14.1-13,24.1-14.8 c2.5-0.4,5-0.6,7.1,0.2c1.6,0.6,2.9,2.1,2,3.8c-0.7,1.4-2.6,2-4.1,2.5c-9.38,3.1-17.47,9.21-23,17.4c-2,3-5,11.3-8.7,9.2 C17.96,45.66,18.76,38.46,24.46,29.66z" opacity="0.65" fill="#FFF170" enable-background="new "/>
    <path d="M52.86,45.96c6.41-4.09,14.5-4.51,21.3-1.1c1,0.5,3.2,1.5,1.8,2.8c-0.59,0.57-1.31,0.98-2.1,1.2c-0.6,0-1.2-0.6-1.8-0.8 c-3.47-1.61-7.34-2.1-11.1-1.4c-1.03,0.21-2.03,0.51-3,0.9c-0.9,0.3-1.8,1.1-2.7,1.3S51.26,46.96,52.86,45.96z M37.96,62.26 c-7.14,0.3-13.71,3.97-17.7,9.9c-0.92,1.41-1.69,2.92-2.3,4.5c-0.28,0.72-0.51,1.45-0.7,2.2c-0.1,0.4-0.1,1.2-0.7,1.1 c-1.4-0.1,1-7.4,1.3-8.3c2.58-6.46,7.61-11.64,14-14.4c2.96-1.3,6.16-1.98,9.4-2h2.4c0.5,0,1.1,0,1.4-0.6s-0.4-1.3-0.8-1.8 c-0.5-0.7-1-1.3-1.5-2c-4.02-6.07-5.29-13.55-3.5-20.6c0.89-3.52,2.49-6.82,4.7-9.7c0.3-0.3,0.8-1.3,1.3-1.3s0.5,0.3,0.4,0.6 c-0.3,0.75-0.71,1.46-1.2,2.1c-0.4,0.9-0.8,1.7-1.1,2.6c-2.28,6.81-1.2,14.3,2.9,20.2c2.1,2.91,4.83,5.31,8,7 c1.55,0.81,3.2,1.41,4.9,1.8c0.82,0.21,1.66,0.38,2.5,0.5c0.6,0.1,1.2,0.2,1.4,0.8c0.3,1.1-0.2,1.7-1.2,2.1 c-1.33,0.47-2.49,1.34-3.3,2.5c-0.89,1.19-1.41,2.62-1.5,4.1c-0.05,0.84,0.05,1.69,0.3,2.5c0.2,0.7,0.9,1.6,0.9,2.3 c-0.22,0.91-0.91,1.63-1.8,1.9c-0.8,0.1-1.3-0.9-1.8-1.4c-0.7-0.7-1.4-1.3-2.1-1.9c-2.75-2.15-5.97-3.62-9.4-4.3 C41.45,62.33,39.7,62.2,37.96,62.26z M57.06,83.96c-0.82-0.15-1.6-0.46-2.3-0.9c-0.8-0.4-1.6-0.9-2.4-1.4 c-1.35-0.93-2.59-2-3.7-3.2c-2.31-2.5-3.99-5.52-4.9-8.8c-0.3-0.9-1.2-3.2,0.1-3.7c0.92-0.07,1.84,0.17,2.6,0.7 c0.7,0.5,0.7,1.4,0.9,2.2c0.9,3.18,2.71,6.03,5.2,8.2c1.41,1.09,2.92,2.06,4.5,2.9C58.16,80.56,58.76,83.96,57.06,83.96z M74.36,100.26c1.93,1.93,4.2,3.49,6.7,4.6c1.17,0.49,2.37,0.89,3.6,1.2c0.3,0.1,0.9,0.1,1,0.5c0.1,0.6-0.5,0.6-0.8,0.5 c-5.1-0.1-10.4-2.5-14.3-5.7c-1.04-0.86-2.01-1.79-2.9-2.8c-0.4-0.5-0.8-0.9-1.2-1.4s-0.9-1.5-1.5-1.8c-1.1-0.6-1.9,1.3-2.5,2 c-0.92,1.14-1.92,2.21-3,3.2c-3.78,3.39-8.47,5.58-13.5,6.3c-0.5,0.1-2.2,0.6-2.5,0.1c-0.6-0.9,2.2-1.3,2.7-1.4 c2.43-0.83,4.7-2.08,6.7-3.7c4.45-3.63,7.26-8.89,7.8-14.6c0.24-2.86-0.04-5.74-0.8-8.5c-0.3-1.3-0.7-2.5-1.1-3.8 c-0.3-0.9-0.9-1.7-0.3-2.5c0.41-0.46,0.84-0.89,1.3-1.3c0.8-0.8,1.3-0.5,2.3-0.1c1.33,0.42,2.74,0.49,4.1,0.2c1-0.2,1.8-1,2.7-0.3 c0.55,0.45,1.05,0.95,1.5,1.5c0.7,0.8,0,1.7-0.3,2.5c-0.9,2.81-1.6,5.69-2.1,8.6C67.16,89.56,70.16,96.06,74.36,100.26z M85.36,68.56c-0.73,3.39-2.28,6.54-4.5,9.2c-1.18,1.38-2.53,2.63-4,3.7c-0.68,0.47-1.38,0.9-2.1,1.3c-0.83,0.54-1.74,0.95-2.7,1.2 c-1.4,0.2-1.2-1.5-1.1-2.4s0.1-1.2,0.9-1.5c0.8-0.37,1.57-0.81,2.3-1.3c2.66-1.7,4.77-4.13,6.1-7c0.47-0.92,0.84-1.9,1.1-2.9 c0.2-0.8,0.3-1.8,1.1-2.3c0.9-0.56,2.08-0.29,2.65,0.61C85.36,67.59,85.45,68.08,85.36,68.56z M112.66,79.76 c-0.8,0.9-1.5-2.7-1.7-3.2c-0.57-1.56-1.34-3.04-2.3-4.4c-1.91-2.9-4.48-5.29-7.5-7c-6.42-3.65-14.22-3.95-20.9-0.8 c-1.72,0.78-3.3,1.83-4.7,3.1c-0.6,0.5-1.2,1.1-1.8,1.7c-0.4,0.4-0.7,0.9-1.3,1s-1.5-0.9-1.8-1.4s0-0.9,0.2-1.4 c0.42-0.81,0.69-1.69,0.8-2.6c0.37-3.04-1.18-5.99-3.9-7.4c-0.5-0.3-1.4-0.4-1.8-0.8c-0.36-0.53-0.44-1.2-0.2-1.8 c0.09-0.34,0.36-0.61,0.7-0.7c0.92-0.22,1.86-0.39,2.8-0.5c7.17-1.6,13.11-6.6,15.9-13.4c1.41-3.41,1.89-7.14,1.4-10.8 c-0.2-1.77-0.6-3.52-1.2-5.2c-0.27-0.76-0.61-1.5-1-2.2c-0.49-0.64-0.9-1.35-1.2-2.1c0-0.3,0.1-0.6,0.4-0.6c0.5,0,1.1,1,1.3,1.4 c1.02,1.36,1.92,2.8,2.7,4.3c1.59,3.11,2.51,6.51,2.7,10c0.23,3.46-0.24,6.93-1.4,10.2c-0.6,1.58-1.3,3.11-2.1,4.6 c-0.8,1.4-2,2.6-2.8,3.9c-0.34,0.47-0.25,1.13,0.2,1.5c0.5,0.3,1.3,0.1,1.8,0.1c1.68-0.02,3.35,0.11,5,0.4 c10.27,1.72,18.53,9.39,21,19.5c0.22,0.82,0.39,1.66,0.5,2.5C112.66,77.96,113.06,79.36,112.66,79.76z"/>
    <path d="M24.46,29.66c4.5-7.1,14.1-13,24.1-14.8 c2.5-0.4,5-0.6,7.1,0.2c1.6,0.6,2.9,2.1,2,3.8c-0.7,1.4-2.6,2-4.1,2.5c-9.38,3.1-17.47,9.21-23,17.4c-2,3-5,11.3-8.7,9.2 C17.96,45.66,18.76,38.46,24.46,29.66z" opacity="0.3" fill="#FFFFFF" enable-background="new "/>
  </g>
</svg>

<svg viewBox="0 0 128 128" xmlns="http://www.w3.org/2000/svg">
  <defs/>
  <path d="M124.46,63.96 A60 60 0 1 1 4.46,63.96 A60 60 0 1 1 124.46,63.96 Z" fill="#F2A600"/>
  <path d="M116.66,63.06 A56.1 56.1 0 1 1 4.46,63.06 A56.1 56.1 0 1 1 116.66,63.06 Z" fill="#FFCC32"/>
  <path d="M24.46,29.66 C28.96,22.56 38.56,16.66 48.56,14.86 C51.06,14.46 53.56,14.26 55.66,15.06 C57.26,15.66 58.56,17.16 57.66,18.86 C56.96,20.26 55.06,20.86 53.56,21.36 C44.18,24.46 36.09,30.57 30.56,38.76 C28.56,41.76 25.56,50.06 21.86,47.96 C17.96,45.66 18.76,38.46 24.46,29.66 Z" fill="#FFF170" opacity="0.65"/>
  <path d="M52.86,45.96 C59.27,41.87 67.36,41.45 74.16,44.86 C75.16,45.36 77.36,46.36 75.96,47.66 C75.37,48.23 74.65,48.64 73.86,48.86 C73.26,48.86 72.66,48.26 72.06,48.06 C68.59,46.45 64.72,45.96 60.96,46.66 C59.93,46.87 58.93,47.17 57.96,47.56 C57.06,47.86 56.16,48.66 55.26,48.86 C54.36,49.06 51.26,46.96 52.86,45.96 Z M37.96,62.26 C30.82,62.56 24.25,66.23 20.26,72.16 C19.34,73.57 18.57,75.08 17.96,76.66 C17.68,77.38 17.45,78.11 17.26,78.86 C17.16,79.26 17.16,80.06 16.56,79.96 C15.16,79.86 17.56,72.56 17.86,71.66 C20.44,65.2 25.47,60.02 31.86,57.26 C34.82,55.96 38.02,55.28 41.26,55.26 L43.66,55.26 C44.16,55.26 44.76,55.26 45.06,54.66 C45.36,54.06 44.66,53.36 44.26,52.86 C43.76,52.16 43.26,51.56 42.76,50.86 C38.74,44.79 37.47,37.31 39.26,30.26 C40.15,26.74 41.75,23.44 43.96,20.56 C44.26,20.26 44.76,19.26 45.26,19.26 C45.76,19.26 45.76,19.56 45.66,19.86 C45.36,20.61 44.95,21.32 44.46,21.96 C44.06,22.86 43.66,23.66 43.36,24.56 C41.08,31.37 42.16,38.86 46.26,44.76 C48.36,47.67 51.09,50.07 54.26,51.76 C55.81,52.57 57.46,53.17 59.16,53.56 C59.98,53.77 60.82,53.94 61.66,54.06 C62.26,54.16 62.86,54.26 63.06,54.86 C63.36,55.96 62.86,56.56 61.86,56.96 C60.53,57.43 59.37,58.3 58.56,59.46 C57.67,60.65 57.15,62.08 57.06,63.56 C57.01,64.4 57.11,65.25 57.36,66.06 C57.56,66.76 58.26,67.66 58.26,68.36 C58.04,69.27 57.35,69.99 56.46,70.26 C55.66,70.36 55.16,69.36 54.66,68.86 C53.96,68.16 53.26,67.56 52.56,66.96 C49.81,64.81 46.59,63.34 43.16,62.66 C41.45,62.33 39.7,62.2 37.96,62.26 Z M57.06,83.96 C56.24,83.81 55.46,83.5 54.76,83.06 C53.96,82.66 53.16,82.16 52.36,81.66 C51.01,80.73 49.77,79.66 48.66,78.46 C46.35,75.96 44.67,72.94 43.76,69.66 C43.46,68.76 42.56,66.46 43.86,65.96 C44.78,65.89 45.7,66.13 46.46,66.66 C47.16,67.16 47.16,68.06 47.36,68.86 C48.26,72.04 50.07,74.89 52.56,77.06 C53.97,78.15 55.48,79.12 57.06,79.96 C58.16,80.56 58.76,83.96 57.06,83.96 Z M74.36,100.26 C76.29,102.19 78.56,103.75 81.06,104.86 C82.23,105.35 83.43,105.75 84.66,106.06 C84.96,106.16 85.56,106.16 85.66,106.56 C85.76,107.16 85.16,107.16 84.86,107.06 C79.76,106.96 74.46,104.56 70.56,101.36 C69.52,100.5 68.55,99.57 67.66,98.56 C67.26,98.06 66.86,97.66 66.46,97.16 C66.06,96.66 65.56,95.66 64.96,95.36 C63.86,94.76 63.06,96.66 62.46,97.36 C61.54,98.5 60.54,99.57 59.46,100.56 C55.68,103.95 50.99,106.14 45.96,106.86 C45.46,106.96 43.76,107.46 43.46,106.96 C42.86,106.06 45.66,105.66 46.16,105.56 C48.59,104.73 50.86,103.48 52.86,101.86 C57.31,98.23 60.12,92.97 60.66,87.26 C60.9,84.4 60.62,81.52 59.86,78.76 C59.56,77.46 59.16,76.26 58.76,74.96 C58.46,74.06 57.86,73.26 58.46,72.46 C58.87,72 59.3,71.57 59.76,71.16 C60.56,70.36 61.06,70.66 62.06,71.06 C63.39,71.48 64.8,71.55 66.16,71.26 C67.16,71.06 67.96,70.26 68.86,70.96 C69.41,71.41 69.91,71.91 70.36,72.46 C71.06,73.26 70.36,74.16 70.06,74.96 C69.16,77.77 68.46,80.65 67.96,83.56 C67.16,89.56 70.16,96.06 74.36,100.26 Z M85.36,68.56 C84.63,71.95 83.08,75.1 80.86,77.76 C79.68,79.14 78.33,80.39 76.86,81.46 C76.18,81.93 75.48,82.36 74.76,82.76 C73.93,83.3 73.02,83.71 72.06,83.96 C70.66,84.16 70.86,82.46 70.96,81.56 C71.06,80.66 71.06,80.36 71.86,80.06 C72.66,79.69 73.43,79.25 74.16,78.76 C76.82,77.06 78.93,74.63 80.26,71.76 C80.73,70.84 81.1,69.86 81.36,68.86 C81.56,68.06 81.66,67.06 82.46,66.56 C83.36,66 84.54,66.27 85.11,67.17 C85.36,67.59 85.45,68.08 85.36,68.56 Z M112.66,79.76 C111.86,80.66 111.16,77.06 110.96,76.56 C110.39,75 109.62,73.52 108.66,72.16 C106.75,69.26 104.18,66.87 101.16,65.16 C94.74,61.51 86.94,61.21 80.26,64.36 C78.54,65.14 76.96,66.19 75.56,67.46 C74.96,67.96 74.36,68.56 73.76,69.16 C73.36,69.56 73.06,70.06 72.46,70.16 C71.86,70.26 70.96,69.26 70.66,68.76 C70.36,68.26 70.66,67.86 70.86,67.36 C71.28,66.55 71.55,65.67 71.66,64.76 C72.03,61.72 70.48,58.77 67.76,57.36 C67.26,57.06 66.36,56.96 65.96,56.56 C65.6,56.03 65.52,55.36 65.76,54.76 C65.85,54.42 66.12,54.15 66.46,54.06 C67.38,53.84 68.32,53.67 69.26,53.56 C76.43,51.96 82.37,46.96 85.16,40.16 C86.57,36.75 87.05,33.02 86.56,29.36 C86.36,27.59 85.96,25.84 85.36,24.16 C85.09,23.4 84.75,22.66 84.36,21.96 C83.87,21.32 83.46,20.61 83.16,19.86 C83.16,19.56 83.26,19.26 83.56,19.26 C84.06,19.26 84.66,20.26 84.86,20.66 C85.88,22.02 86.78,23.46 87.56,24.96 C89.15,28.07 90.07,31.47 90.26,34.96 C90.49,38.42 90.02,41.89 88.86,45.16 C88.26,46.74 87.56,48.27 86.76,49.76 C85.96,51.16 84.76,52.36 83.96,53.66 C83.62,54.13 83.71,54.79 84.16,55.16 C84.66,55.46 85.46,55.26 85.96,55.26 C87.64,55.24 89.31,55.37 90.96,55.66 C101.23,57.38 109.49,65.05 111.96,75.16 C112.18,75.98 112.35,76.82 112.46,77.66 C112.66,77.96 113.06,79.36 112.66,79.76 Z"/>
  <path d="M24.46,29.66 C28.96,22.56 38.56,16.66 48.56,14.86 C51.06,14.46 53.56,14.26 55.66,15.06 C57.26,15.66 58.56,17.16 57.66,18.86 C56.96,20.26 55.06,20.86 53.56,21.36 C44.18,24.46 36.09,30.57 30.56,38.76 C28.56,41.76 25.56,50.06 21.86,47.96 C17.96,45.66 18.76,38.46 24.46,29.66 Z" fill="#FFFFFF" opacity="0.3"/>
</svg>
